X: 22810
T: Lansdowne Lass, The
R: reel
M: 4/4
K: Gmajor
BGGe dBGA|B/c/B GG AGEG|DG G/A/G DGBd|egdB ABGA|
BGGe dBGA|B/c/B GB AGEG|DG G/A/G DGBd|egdB GF:|
BG G/G/G gG G/G/G|gdeg dB G2|g/a/g fg edBd|eaag abga|
[1 bgab gede|gdeg dBAB|GBDB GABd|egdB GF:|
[2 b2 ab ge d2|g/a/g eg dBAB|G/A/G DB GABd|egdB G2||

